svgs/sharp-solid/hand-back-point-right.svg

<svg xmlns="http://www.w3.org/2000/svg" viewBox="0 0 512 512"><!--! Font Awesome Pro 6.3.0 by @fontawesome - https://fontawesome.com License - https://fontawesome.com/license (Commercial License) Copyright 2023 Fonticons, Inc. --><path d="M512 224l0-80-224 0-13.3 0-2.7 0-80 0-16 0 0-32 16 0 56 0L208 64l-68 0c-38 0-74 16.9-98.3 46.1l-4.5 5.4C13.1 144.3 0 180.5 0 217.9L0 336c0 70.7 57.3 128 128 128l16 0 48 0 80 0 0-80 32 0 0-80 32 0 0-80 176 0z"/></svg>

<svg xmlns="http://www.w3.org/2000/svg" viewBox="0 0 512 512"><!--! Font Awesome Pro 6.2.0 by @fontawesome - https://fontawesome.com License - https://fontawesome.com/license (Commercial License) Copyright 2022 Fonticons, Inc. --><path d="M512 224V144H288 274.7 272 192 176V112h16 56L208 64l-68 0c-38 0-74 16.9-98.3 46.1l-4.5 5.4C13.1 144.3 0 180.5 0 217.9L0 336c0 70.7 57.3 128 128 128h16 48 80V384h32V304h32l0-80 176 0z"/></svg>
